icons/premiere-filled.svg

<svg xmlns="http://www.w3.org/2000/svg" width="256" height="256" fill="none" viewBox="0 0 256 256"><rect width="256" height="256" fill="#00005B" rx="60"/><path fill="#99F" d="M54 182.68V72.8133C54 72.0667 54.32 71.64 55.0667 71.64C56.88 71.64 58.5867 71.64 61.04 71.5333C63.6 71.4267 66.2667 71.4267 69.1467 71.32C72.0267 71.2133 75.12 71.2133 78.4267 71.1067C81.7333 71 84.9333 71 88.1333 71C96.88 71 104.133 72.0667 110.107 74.3067C115.44 76.12 120.347 79.1067 124.4 83.0533C127.813 86.4667 130.48 90.6267 132.187 95.2133C133.787 99.6933 134.64 104.28 134.64 109.08C134.64 118.253 132.507 125.827 128.24 131.8C123.973 137.773 118 142.253 111.067 144.813C103.813 147.48 95.8133 148.44 87.0667 148.44C84.5067 148.44 82.8 148.44 81.7333 148.333C80.6667 148.227 79.1733 148.227 77.1467 148.227V182.467C77.2533 183.213 76.72 183.853 75.9733 183.96H75.5467H55.28C54.4267 183.96 54 183.533 54 182.573V182.68ZM77.2533 92.3333V128.173C78.7467 128.28 80.1333 128.387 81.4133 128.387H87.0667C91.2267 128.387 95.3867 127.747 99.3333 126.467C102.747 125.507 105.733 123.48 108.08 120.813C110.32 118.147 111.387 114.52 111.387 109.827C111.493 106.52 110.64 103.213 108.933 100.333C107.12 97.56 104.56 95.4267 101.467 94.2533C97.52 92.6533 93.2533 92.0133 88.88 92.12C86.1067 92.12 83.6533 92.12 81.6267 92.2267C79.4933 92.12 78 92.2267 77.2533 92.3333V92.3333Z"/><path fill="#99F" d="M150 98.6267H168.667C169.734 98.6267 170.587 99.3733 170.907 100.333C171.227 101.187 171.44 102.04 171.547 103C171.76 104.067 171.974 105.24 172.08 106.307C172.187 107.48 172.294 108.76 172.294 110.147C175.494 106.413 179.334 103.32 183.707 100.973C188.614 98.2 194.267 96.8133 199.92 96.8133C200.667 96.7067 201.307 97.24 201.414 97.9867V98.4133V119.213C201.414 120.067 200.88 120.387 199.707 120.387C195.867 120.28 191.92 120.6 188.187 121.453C185.094 122.093 182.107 123.053 179.227 124.333C177.2 125.293 175.28 126.573 173.787 128.28V182.68C173.787 183.747 173.36 184.173 172.4 184.173H151.387C150.534 184.28 149.787 183.747 149.68 182.893V182.467V123.373C149.68 120.813 149.68 118.147 149.574 115.373C149.467 112.6 149.467 109.827 149.36 107.053C149.36 104.6 149.147 102.253 148.934 99.8C148.827 99.2667 149.147 98.7333 149.68 98.6267C149.68 98.52 149.894 98.52 150 98.6267V98.6267Z"/></svg>

<svg xmlns="http://www.w3.org/2000/svg" width="256" height="256" fill="none"><rect width="256" height="256" fill="#00005B" rx="60"/><path fill="#99F" d="M54 182.68V72.813c0-.746.32-1.173 1.067-1.173 1.813 0 3.52 0 5.973-.107 2.56-.106 5.227-.106 8.107-.213s5.973-.107 9.28-.213C81.733 71 84.933 71 88.133 71c8.747 0 16 1.067 21.974 3.307a38.1 38.1 0 0 1 14.293 8.746 34 34 0 0 1 7.787 12.16c1.6 4.48 2.453 9.067 2.453 13.867q0 13.76-6.4 22.72c-4.267 5.973-10.24 10.453-17.173 13.013-7.254 2.667-15.254 3.627-24 3.627-2.56 0-4.267 0-5.334-.107-1.066-.106-2.56-.106-4.586-.106v34.24c.106.746-.427 1.386-1.174 1.493H55.28c-.853 0-1.28-.427-1.28-1.387zm23.253-90.347v35.84c1.494.107 2.88.214 4.16.214h5.654c4.16 0 8.32-.64 12.266-1.92 3.414-.96 6.4-2.987 8.747-5.654 2.24-2.666 3.307-6.293 3.307-10.986a17.56 17.56 0 0 0-2.454-9.494c-1.813-2.773-4.373-4.906-7.466-6.08-3.947-1.6-8.214-2.24-12.587-2.133-2.773 0-5.227 0-7.253.107-2.134-.107-3.627 0-4.374.106M150 98.627h18.667c1.067 0 1.92.746 2.24 1.706.32.854.533 1.707.64 2.667.213 1.067.427 2.24.533 3.307.107 1.173.214 2.453.214 3.84a39.7 39.7 0 0 1 11.413-9.174c4.907-2.773 10.56-4.16 16.213-4.16.747-.106 1.387.427 1.494 1.174v21.226c0 .854-.534 1.174-1.707 1.174-3.84-.107-7.787.213-11.52 1.066q-4.64.96-8.96 2.88c-2.027.96-3.947 2.24-5.44 3.947v54.4c0 1.067-.427 1.493-1.387 1.493h-21.013c-.853.107-1.6-.426-1.707-1.28v-59.52c0-2.56 0-5.226-.106-8-.107-2.773-.107-5.546-.214-8.32 0-2.453-.213-4.8-.426-7.253-.107-.533.213-1.067.746-1.173 0-.107.214-.107.32 0"/></svg>
